;FLAVOR:Marlin
;TIME:5587
;Filament used: 8.54966m
;Layer height: 0.32
;MINX:72.496
;MINY:48.028
;MINZ:0.32
;MAXX:162.398
;MAXY:187.624
;MAXZ:17.92
;Generated with Cura_SteamEngine 4.7.1
M140 S50
M105
M190 S50
M104 S200
M105
M109 S200
M82 ;absolute extrusion mode
; Ender 3 Custom Start G-code
G92 E0 ; Reset Extruder
G28 ; Home all axes
G1 Z2.0 F3000 ; Move Z Axis up little to prevent scratching of Heat Bed
G1 X0.1 Y20 Z0.3 F5000.0 ; Move to start position
G1 X0.1 Y200.0 Z0.3 F1500.0 E15 ; Draw the first line
G1 X0.4 Y200.0 Z0.3 F5000.0 ; Move to side a little
G1 X0.4 Y20 Z0.3 F1500.0 E30 ; Draw the second line
G92 E0 ; Reset Extruder
G1 Z2.0 F3000 ; Move Z Axis up little to prevent scratching of Heat Bed
G1 X5 Y20 Z0.3 F5000.0 ; Move over to prevent blob squish
G92 E0
G92 E0
G1 F2700 E-5
;LAYER_COUNT:56
;LAYER:0
M107
G0 F6000 X84.133 Y63.122 Z0.32
;TYPE:SKIRT
G1 F2700 E0
G1 F1200 X84.36 Y62.82 E0.03016
G1 X84.592 Y62.528 E0.05993
G1 X84.803 Y62.271 E0.08647
G1 X85.062 Y61.967 E0.11835
G1 X85.546 Y61.418 E0.17677
G1 X85.545 Y61.417 E0.17689
G1 X85.721 Y61.215 E0.19827
G1 X85.962 Y60.948 E0.22698
G1 X86.129 Y60.768 E0.24658
G1 X87.828 Y58.892 E0.44862
G1 X88.973 Y57.568 E0.58835
G1 X89.487 Y56.962 E0.65178
G1 X90.137 Y56.257 E0.72832
G1 X90.844 Y55.609 E0.80488
G1 X91.602 Y55.023 E0.88136
G1 X92.282 Y54.576 E0.94631
G1 X92.534 Y54.424 E0.96981
G1 X92.743 Y54.301 E0.98916
G1 X93.178 Y54.036 E1.02982
G1 X93.306 Y53.964 E1.04155
G1 X94.474 Y53.272 E1.14992
G1 X95.319 Y52.818 E1.22649
G1 X95.907 Y52.553 E1.27797
G1 X97.158 Y52.031 E1.38617
G1 X98.348 Y51.52 E1.48955
G1 X99.244 Y51.179 E1.56608
G1 X99.849 Y50.995 E1.61656
G1 X99.944 Y50.969 E1.62442
G1 X100.276 Y50.883 E1.6518
G1 X100.875 Y50.739 E1.70097
G1 X102.288 Y50.416 E1.81667
G1 X102.91 Y50.277 E1.86755
G1 X104.51 Y49.93 E1.99824
G1 X105.24 Y49.776 E2.05779
G1 X106.756 Y49.47 E2.18125
G1 X107.995 Y49.234 E2.28193
G1 X109.226 Y49.014 E2.38175
G1 X110.775 Y48.761 E2.50703
G1 X110.964 Y48.732 E2.5223
G1 X112.037 Y48.576 E2.60885
G1 X112.39 Y48.528 E2.63729
G1 X112.603 Y48.501 E2.65443
G1 X113.766 Y48.365 E2.74789
G1 X113.949 Y48.345 E2.76259
G1 X115.021 Y48.238 E2.84859
G1 X115.813 Y48.17 E2.91204
G1 X116.137 Y48.147 E2.93797
G1 X116.693 Y48.116 E2.98242
G1 X118.128 Y48.049 E3.09709
G1 X118.578 Y48.034 E3.13303
G1 X118.961 Y48.028 E3.16361
G1 X120.104 Y48.028 E3.25485
G1 X120.319 Y48.03 E3.27201
G1 X121.395 Y48.051 E3.35792
G1 X122.118 Y48.075 E3.41566
G1 X122.424 Y48.09 E3.44012
G1 X123.277 Y48.142 E3.50833
G1 X124.393 Y48.226 E3.59767
G1 X125.482 Y48.322 E3.68494
G1 X125.818 Y48.357 E3.7119
G1 X127.04 Y48.501 E3.81012
G1 X128.855 Y48.744 E3.9563
G1 X129.036 Y48.769 E3.97088
G1 X130.291 Y48.959 E4.0722
G1 X131.464 Y49.15 E4.16707
G1 X133.18 Y49.446 E4.30607
G1 X133.85 Y49.567 E4.36042
G1 X135.715 Y49.915 E4.51186
G1 X136.687 Y50.104 E4.5909
G1 X138.756 Y50.538 E4.75965
G1 X139.015 Y50.595 E4.78082
G1 X139.335 Y50.67 E4.80706
G1 X139.717 Y50.767 E4.83852
G1 X140.223 Y50.905 E4.88039
G1 X140.644 Y51.024 E4.91531
G1 X140.981 Y51.124 E4.94337
G1 X141.633 Y51.33 E4.99795
G1 X141.943 Y51.433 E5.02403
G1 X142.461 Y51.613 E5.0678
G1 X142.738 Y51.713 E5.09131
G1 X143.179 Y51.886 E5.12912
G1 X143.566 Y52.047 E5.16258
G1 X143.812 Y52.153 E5.18396
G1 X144.202 Y52.326 E5.21802
G1 X144.845 Y52.635 E5.27497
G1 X145.418 Y52.933 E5.32652
G1 X146.25 Y53.411 E5.40312
G1 X147.039 Y53.956 E5.47966
G1 X147.624 Y54.429 E5.53971
G1 X148.71 Y55.366 E5.65421
G1 X148.709 Y55.367 E5.65432
G1 X148.798 Y55.439 E5.66346
G1 X149.583 Y56.13 E5.74694
G1 X150.081 Y56.579 E5.80047
G1 X150.793 Y57.28 E5.88022
G1 X151.11 Y57.621 E5.91739
G1 X151.733 Y58.35 E5.99394
G1 X152.465 Y59.398 E6.09598
G1 X152.657 Y59.715 E6.12556
G1 X153.273 Y60.77 E6.22308
G1 X153.564 Y61.284 E6.27023
G1 X153.999 Y62.139 E6.34681
G1 X154.323 Y62.922 E6.41445
G1 X154.492 Y63.402 E6.45507
G1 X154.588 Y63.697 E6.47983
G1 X154.678 Y63.989 E6.50422
G1 X154.846 Y64.556 E6.55143
G1 X155.083 Y65.503 E6.62935
G1 X155.363 Y66.867 E6.7405
G1 X155.388 Y66.972 E6.74912
G1 X155.44 Y67.237 E6.77068
G1 X156.006 Y69.758 E6.97692
G1 X156.074 Y70.026 E6.99899
G1 X156.098 Y70.143 E7.00853
G1 X156.101 Y70.142 E7.00878
G1 X156.716 Y72.674 E7.21677
G1 X156.799 Y73.043 E7.24696
G1 X157.019 Y74.104 E7.33346
G1 X157.163 Y74.858 E7.39473
G1 X157.443 Y76.414 E7.52094
G1 X157.543 Y77.016 E7.56965
G1 X157.706 Y78.068 E7.65463
G1 X157.979 Y79.938 E7.80548
G1 X158.041 Y80.379 E7.84103
G1 X158.495 Y83.722 E8.11033
G1 X158.777 Y85.727 E8.27195
G1 X159.069 Y87.648 E8.42706
G1 X159.264 Y88.849 E8.52418
G1 X159.532 Y90.423 E8.65163
G1 X159.825 Y92.06 E8.78438
G1 X160.118 Y93.653 E8.91368
G1 X160.619 Y96.396 E9.13626
G1 X160.778 Y97.296 E9.20921
G1 X160.907 Y98.062 E9.27122
G1 X161.235 Y100.084 E9.43473
G1 X161.415 Y101.28 E9.53128
G1 X161.532 Y102.116 E9.59866
G1 X161.556 Y102.3 E9.61347
G1 X161.718 Y103.617 E9.71939
G1 X161.917 Y105.389 E9.86173
G1 X161.937 Y105.578 E9.8769
G1 X162.039 Y106.645 E9.96246
G1 X162.136 Y107.808 E10.05562
G1 X162.241 Y109.325 E10.177
G1 X162.299 Y110.396 E10.26262
G1 X162.35 Y111.607 E10.35937
G1 X162.357 Y111.814 E10.37591
G1 X162.381 Y112.811 E10.45552
G1 X162.397 Y114.128 E10.56065
G1 X162.398 Y114.314 E10.5755
G1 X162.394 Y115.251 E10.6503
G1 X162.369 Y116.691 E10.76526
G1 X162.365 Y116.853 E10.7782
G1 X162.33 Y117.927 E10.86397
G1 X162.275 Y119.176 E10.96377
G1 X162.198 Y120.532 E11.07219
G1 X162.133 Y121.488 E11.14867
G1 X162.116 Y121.705 E11.16605
G1 X161.806 Y125.256 E11.45058
G1 X161.758 Y125.76 E11.491
G1 X161.668 Y126.577 E11.55661
G1 X161.24 Y130.197 E11.84758
G1 X161.159 Y130.837 E11.89908
G1 X160.76 Y133.782 E12.13631
G1 X160.667 Y134.446 E12.18983
G1 X160.436 Y136.038 E12.31824
G1 X160.238 Y137.363 E12.42518
G1 X159.904 Y139.536 E12.60068
G1 X159.136 Y144.451 E12.99778
G1 X159.008 Y145.306 E13.06679
G1 X158.781 Y146.797 E13.18718
G1 X158.477 Y148.877 E13.35497
G1 X158.463 Y148.981 E13.36335
G1 X157.681 Y154.214 E13.78571
G1 X157.603 Y154.719 E13.8265
G1 X157.251 Y156.892 E14.00222
G1 X157.187 Y157.276 E14.03329
G1 X157.083 Y157.858 E14.08049
G1 X156.762 Y159.591 E14.22118
G1 X156.727 Y159.772 E14.23589
G1 X156.526 Y160.768 E14.317
G1 X156.382 Y161.448 E14.37248
G1 X156.267 Y161.975 E14.41554
G1 X156.104 Y162.683 E14.47354
G1 X155.959 Y163.277 E14.52234
G1 X155.856 Y163.688 E14.55617
G1 X155.801 Y163.897 E14.57342
G1 X155.337 Y165.611 E14.71516
G1 X155.234 Y165.971 E14.74505
G1 X154.88 Y167.128 E14.84163
G1 X154.754 Y167.513 E14.87397
G1 X154.437 Y168.432 E14.95157
G1 X154.359 Y168.653 E14.97028
G1 X154.236 Y168.979 E14.99809
G1 X154.002 Y169.577 E15.04935
G1 X153.925 Y169.769 E15.06586
G1 X153.729 Y170.246 E15.10703
G1 X152.791 Y172.611 E15.31012
G1 X151.828 Y175.28 E15.53661
G1 X151.738 Y175.52 E15.55707
G1 X151.364 Y176.403 E15.63362
G1 X150.906 Y177.271 E15.71196
G1 X150.194 Y178.493 E15.82486
G1 X149.855 Y179.04 E15.87623
G1 X149.513 Y179.558 E15.92578
G1 X149.376 Y179.769 E15.94586
G1 X149.231 Y179.988 E15.96682
G1 X149.091 Y180.193 E15.98664
G1 X148.517 Y180.961 E16.06317
G1 X148.17 Y181.368 E16.10587
G1 X147.133 Y182.528 E16.23007
G1 X147.056 Y182.612 E16.23917
G1 X146.379 Y183.291 E16.31571
G1 X145.648 Y183.912 E16.39227
G1 X144.979 Y184.395 E16.45814
G1 X144.67 Y184.602 E16.48783
G1 X143.582 Y185.248 E16.58883
G1 X143.054 Y185.523 E16.63635
G1 X142.393 Y185.841 E16.6949
G1 X142.004 Y186.013 E16.72885
G1 X141.652 Y186.161 E16.75934
G1 X141.456 Y186.24 E16.7762
G1 X141.135 Y186.364 E16.80367
G1 X140.937 Y186.437 E16.82052
G1 X140.464 Y186.6 E16.86045
G1 X139.964 Y186.76 E16.90236
G1 X138.725 Y187.081 E17.00453
G1 X138.526 Y187.121 E17.02073
G1 X138.096 Y187.199 E17.05561
G1 X137.698 Y187.263 E17.08779
G1 X137.51 Y187.291 E17.10297
G1 X137.315 Y187.323 E17.11874
G1 X136.832 Y187.393 E17.1577
G1 X135.793 Y187.492 E17.24101
G1 X134.861 Y187.538 E17.3155
G1 X134.635 Y187.547 E17.33355
G1 X132.443 Y187.612 E17.5086
G1 X132.178 Y187.617 E17.52976
G1 X132.027 Y187.618 E17.54181
G1 X131.64 Y187.614 E17.57271
G1 X129.216 Y187.548 E17.76627
G1 X127.585 Y187.561 E17.89647
G1 X127.411 Y187.555 E17.91037
G1 X127.227 Y187.555 E17.92506
G1 X126.153 Y187.573 E18.0108
G1 X125.353 Y187.579 E18.07466
G1 X125.048 Y187.588 E18.09902
G1 X124.791 Y187.593 E18.11954
G1 X124.342 Y187.596 E18.15538
G1 X122.495 Y187.623 E18.30283
G1 X122.282 Y187.624 E18.31983
G1 X121.752 Y187.622 E18.36214
G1 X120.932 Y187.609 E18.42761
G1 X120.637 Y187.592 E18.45119
G1 X119.627 Y187.574 E18.53183
G1 X118.58 Y187.508 E18.61557
G1 X117.503 Y187.39 E18.70205
G1 X117.163 Y187.347 E18.72941
G1 X116.362 Y187.235 E18.79397
G1 X116.173 Y187.207 E18.80922
G1 X115.548 Y187.109 E18.85972
G1 X114.919 Y186.993 E18.91078
G1 X113.691 Y186.73 E19.01103
G1 X113.453 Y186.69 E19.03029
G1 X111.921 Y186.35 E19.15556
G1 X109.469 Y185.896 E19.35461
G1 X109.155 Y185.842 E19.38005
G1 X108.861 Y185.787 E19.40392
G1 X107.945 Y185.576 E19.47896
G1 X107.216 Y185.377 E19.53928
G1 X106.516 Y185.189 E19.59713
G1 X104.676 Y184.701 E19.74909
G1 X102.146 Y184.069 E19.95725
G1 X99.661 Y183.521 E20.16038
G1 X97.885 Y183.177 E20.30478
G1 X97.356 Y183.069 E20.34788
G1 X96.425 Y182.838 E20.42445
G1 X95.792 Y182.633 E20.47756
G1 X94.792 Y182.276 E20.56232
G1 X92.862 Y181.609 E20.72532
G1 X92.342 Y181.416 E20.7696
G1 X91.965 Y181.265 E20.80202
G1 X90.879 Y180.763 E20.89752
G1 X90.657 Y180.646 E20.91755
G1 X89.783 Y180.135 E20.99837
G1 X88.689 Y179.429 E21.1023
G1 X88.263 Y179.144 E21.14321
G1 X87.859 Y178.859 E21.18268
G1 X87.049 Y178.261 E21.26305
G1 X86.385 Y177.757 E21.32959
G1 X85.646 Y177.145 E21.40618
G1 X85.153 Y176.673 E21.46067
G1 X84.962 Y176.479 E21.4824
G1 X84.805 Y176.316 E21.50046
G1 X84.49 Y175.983 E21.53705
G1 X84.298 Y175.783 E21.55918
G1 X84.083 Y175.553 E21.58432
G1 X83.389 Y174.788 E21.66677
G1 X83.21 Y174.587 E21.68825
G1 X82.603 Y173.845 E21.76477
G1 X82.257 Y173.359 E21.8124
G1 X80.674 Y171.006 E22.03877
G1 X79.693 Y169.622 E22.17419
G1 X79.117 Y168.826 E22.25262
G1 X78.915 Y168.537 E22.28076
G1 X78.635 Y168.124 E22.32059
G1 X78.328 Y167.647 E22.36587
G1 X78.179 Y167.402 E22.38876
G1 X78.028 Y167.145 E22.41256
G1 X77.801 Y166.749 E22.44899
G1 X77.637 Y166.453 E22.47601
G1 X77.437 Y166.079 E22.50986
G1 X77.162 Y165.53 E22.55887
G1 X76.834 Y164.829 E22.62065
G1 X76.755 Y164.657 E22.63576
G1 X76.544 Y164.186 E22.67696
G1 X76.419 Y163.897 E22.7021
G1 X76.296 Y163.601 E22.72768
G1 X76.175 Y163.297 E22.7538
G1 X75.946 Y162.695 E22.80521
G1 X75.842 Y162.412 E22.82928
G1 X75.738 Y162.118 E22.85417
G1 X75.618 Y161.762 E22.88416
G1 X75.513 Y161.435 E22.91158
G1 X75.229 Y160.501 E22.9895
G1 X75.127 Y160.142 E23.0193
G1 X74.921 Y159.376 E23.08261
G1 X74.831 Y159.021 E23.11185
G1 X74.722 Y158.555 E23.15005
G1 X74.677 Y158.356 E23.16634
G1 X74.632 Y158.147 E23.1834
G1 X74.47 Y157.363 E23.24731
G1 X74.407 Y157.033 E23.27412
G1 X74.185 Y155.774 E23.37617
G1 X74.116 Y155.338 E23.41141
G1 X73.934 Y154.01 E23.51841
G1 X73.901 Y153.746 E23.53964
G1 X73.849 Y153.288 E23.57644
G1 X73.829 Y153.095 E23.59193
G1 X73.691 Y151.664 E23.70669
G1 X73.667 Y151.374 E23.72991
G1 X73.591 Y150.302 E23.8157
G1 X73.549 Y149.627 E23.86969
G1 X73.524 Y149.101 E23.91172
G1 X73.462 Y147.513 E24.03858
G1 X73.428 Y146.22 E24.14183
G1 X73.412 Y145.101 E24.23116
G1 X73.407 Y144.153 E24.30683
G1 X73.413 Y142.454 E24.44246
G1 X73.386 Y139.92 E24.64474
G1 X73.288 Y137.417 E24.8447
G1 X73.119 Y134.913 E25.04503
G1 X72.9 Y132.619 E25.22898
G1 X72.898 Y132.587 E25.23154
G1 X72.772 Y131.401 E25.32675
G1 X72.709 Y130.381 E25.40832
G1 X72.704 Y130.111 E25.42988
G1 X72.561 Y126.287 E25.73534
G1 X72.515 Y125.499 E25.79835
G1 X72.496 Y124.85 E25.85018
G1 X72.496 Y123.956 E25.92154
G1 X72.506 Y123.283 E25.97527
G1 X72.537 Y121.432 E26.12304
G1 X72.551 Y120.868 E26.16808
G1 X72.606 Y119.233 E26.29866
G1 X72.635 Y118.486 E26.35834
G1 X72.743 Y115.989 E26.55784
G1 X72.748 Y115.923 E26.56313
G1 X72.833 Y114.203 E26.70059
G1 X72.978 Y111.642 E26.90535
G1 X73.051 Y110.475 E26.99869
G1 X73.103 Y109.684 E27.06197
G1 X73.249 Y107.605 E27.22833
G1 X73.412 Y105.488 E27.39782
G1 X73.509 Y104.408 E27.48437
G1 X73.791 Y101.588 E27.7106
G1 X73.843 Y101.109 E27.74906
G1 X73.87 Y100.886 E27.76699
G1 X73.941 Y100.333 E27.8115
G1 X74.043 Y99.684 E27.86394
G1 X74.066 Y99.563 E27.87377
G1 X74.512 Y96.965 E28.08419
G1 X74.769 Y95.214 E28.22546
G1 X74.845 Y94.658 E28.27025
G1 X75.078 Y93.455 E28.36807
G1 X75.076 Y93.454 E28.36825
G1 X75.697 Y90.857 E28.58139
G1 X76.205 Y88.435 E28.77894
G1 X76.651 Y85.963 E28.97945
G1 X76.982 Y83.748 E29.15822
G1 X77.006 Y83.621 E29.16854
G1 X77.014 Y83.567 E29.1729
G1 X77.017 Y83.564 E29.17323
G1 X77.036 Y83.382 E29.18784
G1 X77.113 Y82.894 E29.22728
G1 X77.182 Y82.389 E29.26796
G1 X77.341 Y81.345 E29.35226
G1 X77.37 Y81.162 E29.36705
G1 X77.598 Y79.819 E29.47579
G1 X77.65 Y79.536 E29.49876
G1 X77.868 Y78.426 E29.58906
G1 X77.981 Y77.874 E29.63403
G1 X78.05 Y77.559 E29.65977
G1 X78.344 Y76.305 E29.76259
G1 X78.506 Y75.654 E29.81614
G1 X78.563 Y75.434 E29.83428
G1 X78.946 Y74.015 E29.9516
G1 X79.095 Y73.511 E29.99356
G1 X79.476 Y72.319 E30.09345
G1 X79.622 Y71.89 E30.12962
G1 X80.146 Y70.449 E30.25202
G1 X80.262 Y70.144 E30.27807
G1 X80.39 Y69.826 E30.30543
G1 X80.645 Y69.222 E30.35776
G1 X80.736 Y69.013 E30.37596
G1 X80.855 Y68.746 E30.39929
G1 X80.986 Y68.463 E30.42419
G1 X81.366 Y67.669 E30.49445
G1 X81.519 Y67.36 E30.52198
G1 X81.68 Y67.048 E30.55
G1 X81.834 Y66.76 E30.57607
G1 X82.181 Y66.132 E30.63334
G1 X82.361 Y65.818 E30.66224
G1 X82.638 Y65.351 E30.70558
G1 X82.867 Y64.978 E30.74052
G1 X83.082 Y64.64 E30.77249
G1 X83.509 Y63.996 E30.83417
G1 X83.8 Y63.579 E30.87476
G1 X84.133 Y63.122 E30.9199
G0 F6000 X84.618 Y63.475
G1 F1200 X84.836 Y63.185 E30.94886
G1 X85.056 Y62.908 E30.9771
G1 X85.267 Y62.651 E31.00364
G1 X85.512 Y62.363 E31.03382
G1 X86.174 Y61.61 E31.11386
G1 X86.401 Y61.356 E31.14105
G1 X86.528 Y61.219 E31.15596
G1 X88.321 Y59.241 E31.36907
G1 X89.367 Y58.03 E31.4968
G1 X89.944 Y57.35 E31.56799
G1 X90.578 Y56.665 E31.6425
G1 X91.269 Y56.036 E31.71709
G1 X92.01 Y55.469 E31.79157
G1 X92.593 Y55.089 E31.84712
G1 X92.838 Y54.942 E31.86992
G1 X93.025 Y54.832 E31.88724
G1 X93.491 Y54.548 E31.9308
G1 X93.612 Y54.48 E31.94188
G1 X94.78 Y53.788 E32.05025
G1 X95.603 Y53.347 E32.12479
G1 X96.138 Y53.107 E32.17159
G1 X97.354 Y52.6 E32.27676
G1 X98.585 Y52.071 E32.38371
G1 X99.457 Y51.74 E32.45816
G1 X100.008 Y51.574 E32.5041
G1 X100.103 Y51.548 E32.51196
G1 X100.417 Y51.467 E32.53785
G1 X101.009 Y51.324 E32.58646
G1 X102.42 Y51.001 E32.70201
G1 X103.037 Y50.863 E32.75247
G1 X104.634 Y50.517 E32.88291
G1 X105.359 Y50.364 E32.94206
G1 X106.868 Y50.059 E33.06495
G1 X108.101 Y49.824 E33.16515
G1 X109.154 Y49.635 E33.25054
G1 X110.872 Y49.354 E33.3895
G1 X111.051 Y49.326 E33.40397
G1 X112.117 Y49.17 E33.48997
G1 X112.47 Y49.122 E33.5184
G1 X112.673 Y49.097 E33.53473
G1 X113.836 Y48.961 E33.6282
G1 X114.009 Y48.942 E33.64209
G1 X114.912 Y48.851 E33.71454
G1 X115.865 Y48.768 E33.7909
G1 X116.172 Y48.746 E33.81547
G1 X116.721 Y48.715 E33.85936
G1 X118.148 Y48.649 E33.97339
G1 X118.598 Y48.634 E34.00933
G1 X118.961 Y48.628 E34.03831
G1 X120.104 Y48.628 E34.12955
G1 X120.308 Y48.63 E34.14584
G1 X121.375 Y48.651 E34.23102
G1 X122.098 Y48.675 E34.28877
G1 X122.388 Y48.689 E34.31195
G1 X123.233 Y48.74 E34.37952
G1 X124.196 Y48.812 E34.45661
G1 X125.429 Y48.92 E34.55541
G1 X125.748 Y48.953 E34.58101
G1 X126.97 Y49.097 E34.67923
G1 X127.146 Y49.119 E34.69338
G1 X128.775 Y49.338 E34.82459
G1 X130.194 Y49.551 E34.93913
G1 X131.362 Y49.742 E35.0336
G1 X133.149 Y50.05 E35.17835
G1 X133.74 Y50.156 E35.22628
G1 X135.6 Y50.504 E35.37733
G1 X136.572 Y50.693 E35.45637
G1 X138.632 Y51.125 E35.62439
G1 X138.878 Y51.18 E35.64451
G1 X139.198 Y51.255 E35.67074
G1 X139.56 Y51.346 E35.70054
G1 X140.06 Y51.482 E35.7419
G1 X140.481 Y51.601 E35.77682
G1 X140.8 Y51.696 E35.80339
G1 X141.452 Y51.902 E35.85797
G1 X141.746 Y52 E35.88271
G1 X142.264 Y52.18 E35.92649
G1 X142.53 Y52.276 E35.94906
G1 X142.949 Y52.44 E35.98498
G1 X143.336 Y52.601 E36.01844
G1 X143.569 Y52.701 E36.03868
G1 X143.959 Y52.874 E36.07273
