;FLAVOR:Marlin
;TIME:4271
;Filament used: 6.18509m
;Layer height: 0.32
;MINX:72.934
;MINY:48.503
;MINZ:0.32
;MAXX:162.161
;MAXY:187.25
;MAXZ:17.6
;Generated with Cura_SteamEngine 4.7.1
M140 S50
M105
M190 S50
M104 S200
M105
M109 S200
M82 ;absolute extrusion mode
; Ender 3 Custom Start G-code
G92 E0 ; Reset Extruder
G28 ; Home all axes
G1 Z2.0 F3000 ; Move Z Axis up little to prevent scratching of Heat Bed
G1 X0.1 Y20 Z0.3 F5000.0 ; Move to start position
G1 X0.1 Y200.0 Z0.3 F1500.0 E15 ; Draw the first line
G1 X0.4 Y200.0 Z0.3 F5000.0 ; Move to side a little
G1 X0.4 Y20 Z0.3 F1500.0 E30 ; Draw the second line
G92 E0 ; Reset Extruder
G1 Z2.0 F3000 ; Move Z Axis up little to prevent scratching of Heat Bed
G1 X5 Y20 Z0.3 F5000.0 ; Move over to prevent blob squish
G92 E0
G92 E0
G1 F2700 E-5
;LAYER_COUNT:55
;LAYER:0
M107
G0 F6000 X84.6 Y62.93 Z0.32
;TYPE:SKIRT
G1 F2700 E0
G1 F1200 X84.757 Y62.721 E0.02087
G1 X85.109 Y62.276 E0.06616
G1 X85.597 Y61.689 E0.12709
G1 X85.834 Y61.413 E0.15613
G1 X85.99 Y61.237 E0.1749
G1 X86.234 Y60.97 E0.20378
G1 X86.691 Y60.486 E0.25691
G1 X87.014 Y60.157 E0.29372
G1 X87.281 Y59.896 E0.32352
G1 X87.55 Y59.642 E0.35305
G1 X88.393 Y58.869 E0.44435
G1 X88.663 Y58.629 E0.47319
G1 X89.574 Y57.843 E0.56923
G1 X92.29 Y55.34 E0.86406
G1 X93.019 Y54.716 E0.94066
G1 X93.797 Y54.155 E1.01723
G1 X94.619 Y53.662 E1.09374
G1 X95.757 Y53.12 E1.19436
G1 X96.266 Y52.911 E1.23828
G1 X96.562 Y52.794 E1.26368
G1 X97.151 Y52.571 E1.31396
G1 X97.673 Y52.382 E1.35827
G1 X99.469 Y51.689 E1.51194
G1 X99.857 Y51.547 E1.54492
G1 X100.674 Y51.297 E1.61312
G1 X100.963 Y51.22 E1.637
G1 X101.348 Y51.124 E1.66867
G1 X101.948 Y50.987 E1.7178
G1 X102.807 Y50.8 E1.78797
G1 X103.211 Y50.716 E1.82091
G1 X104.263 Y50.482 E1.90694
G1 X105.244 Y50.273 E1.987
G1 X106.164 Y50.084 E2.06198
G1 X107.086 Y49.899 E2.13704
G1 X107.803 Y49.761 E2.19533
G1 X108.501 Y49.631 E2.252
G1 X109.065 Y49.529 E2.29775
G1 X109.672 Y49.423 E2.34694
G1 X110.602 Y49.271 E2.42216
G1 X111.08 Y49.197 E2.46077
G1 X111.842 Y49.085 E2.52225
G1 X112.278 Y49.025 E2.55738
G1 X113.454 Y48.879 E2.65198
G1 X113.723 Y48.849 E2.67358
G1 X115.046 Y48.717 E2.77971
G1 X115.324 Y48.692 E2.80199
G1 X116.439 Y48.608 E2.89125
G1 X116.777 Y48.588 E2.91828
G1 X118.043 Y48.53 E3.01944
G1 X118.425 Y48.519 E3.04995
G1 X119.703 Y48.503 E3.15197
G1 X120.045 Y48.504 E3.17927
G1 X121.265 Y48.525 E3.27667
G1 X121.614 Y48.536 E3.30454
G1 X122.915 Y48.598 E3.40851
G1 X123.235 Y48.618 E3.43411
G1 X124.426 Y48.708 E3.52945
G1 X124.691 Y48.731 E3.55068
G1 X125.955 Y48.856 E3.65207
G1 X126.163 Y48.878 E3.66877
G1 X127.225 Y49.003 E3.75413
G1 X127.568 Y49.047 E3.78173
G1 X128.547 Y49.181 E3.86061
G1 X129.809 Y49.371 E3.96248
G1 X130.547 Y49.486 E4.0221
G1 X131.048 Y49.569 E4.06264
G1 X131.932 Y49.72 E4.13423
G1 X133.452 Y49.991 E4.25747
G1 X134.813 Y50.24 E4.36792
G1 X136.497 Y50.554 E4.50466
G1 X137.002 Y50.651 E4.54571
G1 X137.234 Y50.698 E4.5646
G1 X138.513 Y50.971 E4.669
G1 X138.841 Y51.047 E4.69587
G1 X139.414 Y51.187 E4.74296
G1 X139.733 Y51.269 E4.76925
G1 X140.417 Y51.457 E4.82587
G1 X140.707 Y51.541 E4.84997
G1 X141.129 Y51.669 E4.88518
G1 X141.519 Y51.795 E4.91789
G1 X141.913 Y51.93 E4.95114
G1 X142.275 Y52.061 E4.98187
G1 X143.108 Y52.378 E5.05301
G1 X143.531 Y52.549 E5.08943
G1 X143.606 Y52.581 E5.09594
G1 X144.037 Y52.775 E5.13367
G1 X144.751 Y53.115 E5.1968
G1 X145.347 Y53.42 E5.25024
G1 X145.669 Y53.597 E5.27957
G1 X146.232 Y53.928 E5.3317
G1 X146.89 Y54.34 E5.39368
G1 X147.681 Y54.882 E5.47022
G1 X148.6 Y55.649 E5.56577
G1 X149.192 Y56.236 E5.63232
G1 X149.786 Y56.87 E5.70167
G1 X150.058 Y57.168 E5.73387
G1 X150.838 Y58.011 E5.82555
G1 X151.46 Y58.741 E5.90211
G1 X152.019 Y59.52 E5.97864
G1 X152.574 Y60.461 E6.06585
G1 X152.661 Y60.626 E6.08074
G1 X152.79 Y60.88 E6.10348
G1 X153.104 Y61.514 E6.15996
G1 X153.174 Y61.66 E6.17288
G1 X153.552 Y62.541 E6.24941
G1 X153.831 Y63.367 E6.319
G1 X153.987 Y63.895 E6.36295
G1 X154.724 Y66.255 E6.56031
G1 X155.146 Y67.472 E6.66313
G1 X155.634 Y68.958 E6.78798
G1 X155.744 Y69.312 E6.81757
G1 X155.951 Y70.02 E6.87645
G1 X156.026 Y70.288 E6.89867
G1 X156.243 Y71.103 E6.96599
G1 X156.3 Y71.327 E6.98444
G1 X156.628 Y72.669 E7.09472
G1 X156.66 Y72.807 E7.10603
G1 X156.731 Y73.138 E7.13305
G1 X156.86 Y73.778 E7.18516
G1 X156.93 Y74.103 E7.2117
G1 X156.985 Y74.375 E7.23385
G1 X157.133 Y75.148 E7.29668
G1 X157.272 Y75.915 E7.3589
G1 X157.39 Y76.611 E7.41525
G1 X157.421 Y76.805 E7.43093
G1 X157.462 Y77.079 E7.45305
G1 X157.591 Y77.857 E7.516
G1 X157.73 Y78.771 E7.5898
G1 X157.92 Y80.073 E7.69483
G1 X157.962 Y80.379 E7.71949
G1 X158.079 Y81.197 E7.78545
G1 X158.459 Y83.995 E8.01085
G1 X158.633 Y85.24 E8.11119
G1 X158.793 Y86.347 E8.20048
G1 X158.946 Y87.36 E8.28226
G1 X159.072 Y88.171 E8.34777
G1 X159.248 Y89.261 E8.4359
G1 X159.372 Y90.009 E8.49643
G1 X159.582 Y91.224 E8.59485
G1 X160.184 Y94.62 E8.87016
G1 X160.438 Y96.069 E8.98759
G1 X160.514 Y96.515 E9.02371
G1 X160.761 Y98.022 E9.14561
G1 X160.88 Y98.779 E9.20678
G1 X161.075 Y100.073 E9.31123
G1 X161.206 Y100.97 E9.3836
G1 X161.395 Y102.419 E9.50024
G1 X161.53 Y103.551 E9.59124
G1 X161.663 Y104.754 E9.68786
G1 X161.773 Y105.852 E9.77594
G1 X161.863 Y106.885 E9.85871
G1 X161.896 Y107.295 E9.89155
G1 X161.945 Y107.962 E9.94493
G1 X161.961 Y108.217 E9.96533
G1 X162.004 Y109.052 E10.03207
G1 X162.052 Y109.786 E10.09079
G1 X162.066 Y110.026 E10.10998
G1 X162.097 Y110.742 E10.16719
G1 X162.113 Y111.167 E10.20113
G1 X162.135 Y111.888 E10.25871
G1 X162.145 Y112.367 E10.29696
G1 X162.161 Y113.535 E10.3902
G1 X162.161 Y114.927 E10.50132
G1 X162.147 Y116.023 E10.58881
G1 X162.136 Y116.523 E10.62873
G1 X162.115 Y117.265 E10.68799
G1 X162.093 Y117.867 E10.73607
G1 X162.04 Y119.077 E10.83275
G1 X161.995 Y119.926 E10.90062
G1 X161.953 Y120.623 E10.95636
G1 X161.869 Y121.846 E11.05421
G1 X161.797 Y122.769 E11.12812
G1 X161.7 Y123.931 E11.22119
G1 X161.658 Y124.39 E11.25799
G1 X161.632 Y124.642 E11.27821
G1 X161.581 Y125.203 E11.32318
G1 X161.542 Y125.573 E11.35287
G1 X161.41 Y126.873 E11.45718
G1 X161.309 Y127.804 E11.53193
G1 X161.21 Y128.643 E11.59937
G1 X161.179 Y128.883 E11.61869
G1 X161.097 Y129.574 E11.67423
G1 X160.919 Y130.974 E11.78688
G1 X160.877 Y131.317 E11.81447
G1 X160.787 Y132.006 E11.86994
G1 X160.713 Y132.548 E11.9136
G1 X160.692 Y132.712 E11.9268
G1 X160.672 Y132.835 E11.93675
G1 X160.674 Y132.835 E11.93691
G1 X160.504 Y134.083 E12.03745
G1 X160.425 Y134.642 E12.08251
G1 X160.089 Y136.966 E12.26995
G1 X159.698 Y139.547 E12.47833
G1 X158.708 Y145.927 E12.9937
G1 X158.378 Y148.1 E13.16915
G1 X157.87 Y151.474 E13.44151
G1 X157.548 Y153.558 E13.60984
G1 X157.475 Y154.024 E13.64749
G1 X157.305 Y155.067 E13.73185
G1 X157.101 Y156.278 E13.82988
G1 X156.876 Y157.573 E13.9348
G1 X156.784 Y158.078 E13.97577
G1 X156.734 Y158.339 E13.99699
G1 X156.631 Y158.907 E14.04307
G1 X156.534 Y159.405 E14.08357
G1 X156.367 Y160.239 E14.15146
G1 X156.189 Y161.091 E14.22094
G1 X155.99 Y162.001 E14.2953
G1 X155.685 Y163.314 E14.4029
G1 X155.548 Y163.866 E14.4483
G1 X155.409 Y164.406 E14.49281
G1 X155.163 Y165.31 E14.56759
G1 X155.11 Y165.498 E14.58318
G1 X154.838 Y166.432 E14.66084
G1 X154.754 Y166.709 E14.68394
G1 X154.45 Y167.663 E14.76387
G1 X154.364 Y167.923 E14.78573
G1 X154.189 Y168.43 E14.82854
G1 X154.079 Y168.733 E14.85427
G1 X153.738 Y169.638 E14.93147
G1 X153.577 Y170.042 E14.96619
G1 X153.235 Y170.855 E15.03659
G1 X153.072 Y171.226 E15.06894
G1 X152.237 Y173.03 E15.22762
G1 X151.185 Y175.387 E15.43366
G1 X150.68 Y176.596 E15.53825
G1 X150.573 Y176.845 E15.55988
G1 X150.495 Y177.02 E15.57517
G1 X150.068 Y177.879 E15.65175
G1 X149.764 Y178.4 E15.6999
G1 X149.47 Y178.874 E15.74442
G1 X149.236 Y179.239 E15.77903
G1 X149.116 Y179.429 E15.79697
G1 X148.571 Y180.218 E15.87352
G1 X147.686 Y181.255 E15.98234
G1 X147.564 Y181.382 E15.9964
G1 X146.822 Y182.089 E16.07821
G1 X146.544 Y182.331 E16.10763
G1 X146.255 Y182.574 E16.13777
G1 X145.851 Y182.903 E16.17936
G1 X145.671 Y183.046 E16.19771
G1 X145.177 Y183.432 E16.24775
G1 X144.57 Y183.918 E16.30983
G1 X143.797 Y184.486 E16.3864
G1 X142.979 Y184.987 E16.46297
G1 X142.391 Y185.293 E16.51588
G1 X142.298 Y185.338 E16.52413
G1 X141.745 Y185.588 E16.57257
G1 X141.45 Y185.712 E16.59811
G1 X141.089 Y185.857 E16.62917
G1 X140.506 Y186.068 E16.67866
G1 X140.316 Y186.131 E16.69464
G1 X139.998 Y186.231 E16.72125
G1 X139.374 Y186.418 E16.77325
G1 X139.146 Y186.484 E16.79219
G1 X138.908 Y186.55 E16.81191
G1 X138.671 Y186.613 E16.83148
G1 X138.172 Y186.74 E16.87259
G1 X137.234 Y186.937 E16.9491
G1 X136.265 Y187.057 E17.02704
G1 X135.887 Y187.083 E17.05728
G1 X134.481 Y187.155 E17.16966
G1 X134.481 Y187.15 E17.17006
G1 X134.349 Y187.163 E17.18065
G1 X133.945 Y187.179 E17.21292
G1 X133.657 Y187.196 E17.23595
G1 X132.985 Y187.227 E17.28965
G1 X132.674 Y187.237 E17.31449
G1 X132.148 Y187.247 E17.35648
G1 X131.666 Y187.25 E17.39496
G1 X129.473 Y187.229 E17.57002
G1 X128.209 Y187.205 E17.67094
G1 X128.13 Y187.207 E17.67725
G1 X126.011 Y187.178 E17.84641
G1 X123.183 Y187.223 E18.07218
G1 X123.06 Y187.227 E18.08201
G1 X122.456 Y187.229 E18.13022
G1 X122.281 Y187.225 E18.14419
G1 X120.181 Y187.199 E18.31184
G1 X119.919 Y187.192 E18.33276
G1 X118.918 Y187.121 E18.41286
G1 X117.992 Y187.015 E18.48726
G1 X117.749 Y186.985 E18.50681
G1 X117.449 Y186.944 E18.53098
G1 X117.073 Y186.89 E18.5613
G1 X116.733 Y186.845 E18.58868
G1 X115.624 Y186.689 E18.67807
G1 X114.645 Y186.545 E18.75706
G1 X113.164 Y186.318 E18.87666
G1 X112.982 Y186.289 E18.89137
G1 X112.309 Y186.174 E18.94587
G1 X111.651 Y186.041 E18.99946
G1 X111.148 Y185.924 E19.04068
G1 X109.216 Y185.449 E19.1995
G1 X108.136 Y185.199 E19.28799
G1 X107.509 Y185.035 E19.33972
G1 X106.944 Y184.87 E19.38671
G1 X104.423 Y184.173 E19.59549
G1 X102.065 Y183.591 E19.78937
G1 X99.546 Y183.045 E19.99511
G1 X98.056 Y182.763 E20.11616
G1 X97.809 Y182.713 E20.13628
G1 X96.539 Y182.444 E20.23991
G1 X95.61 Y182.207 E20.31644
G1 X94.623 Y181.86 E20.39995
G1 X93.763 Y181.514 E20.47395
G1 X92.809 Y181.133 E20.55595
G1 X91.987 Y180.81 E20.62645
G1 X91.109 Y180.423 E20.70304
G1 X89.993 Y179.793 E20.80534
G1 X89.868 Y179.713 E20.81719
G1 X89.635 Y179.56 E20.83944
G1 X88.507 Y178.805 E20.94779
G1 X87.479 Y178.03 E21.05055
G1 X86.805 Y177.461 E21.12096
G1 X86.57 Y177.257 E21.1458
G1 X86.33 Y177.043 E21.17147
G1 X86.118 Y176.85 E21.19436
G1 X85.942 Y176.685 E21.21361
G1 X85.769 Y176.519 E21.23275
G1 X85.105 Y175.87 E21.30687
G1 X84.447 Y175.172 E21.38344
G1 X84.074 Y174.717 E21.43041
G1 X83.439 Y173.903 E21.51281
G1 X82.613 Y172.874 E21.61814
G1 X82.186 Y172.331 E21.67329
G1 X81.801 Y171.863 E21.72166
G1 X81.784 Y171.841 E21.72388
G1 X81.627 Y171.656 E21.74325
G1 X80.836 Y170.701 E21.84223
G1 X80.686 Y170.515 E21.86131
G1 X80.077 Y169.745 E21.93967
G1 X79.601 Y169.094 E22.00405
G1 X79.282 Y168.623 E22.04946
G1 X79.059 Y168.28 E22.08211
G1 X78.809 Y167.881 E22.1197
G1 X78.625 Y167.576 E22.14813
G1 X78.417 Y167.22 E22.18105
G1 X78.24 Y166.907 E22.20975
G1 X77.988 Y166.443 E22.2519
G1 X77.66 Y165.791 E22.31016
G1 X77.241 Y164.887 E22.38969
G1 X77.046 Y164.441 E22.42855
G1 X76.633 Y163.441 E22.51491
G1 X76.496 Y163.094 E22.54469
G1 X76.413 Y162.873 E22.56354
G1 X76.315 Y162.602 E22.58654
G1 X76.265 Y162.458 E22.59871
G1 X76.183 Y162.213 E22.61933
G1 X75.922 Y161.403 E22.68726
G1 X75.815 Y161.049 E22.71678
G1 X75.577 Y160.22 E22.78563
G1 X75.494 Y159.919 E22.81055
G1 X75.364 Y159.415 E22.8521
G1 X75.27 Y159.018 E22.88467
G1 X74.922 Y157.439 E23.01374
G1 X74.873 Y157.207 E23.03266
G1 X74.803 Y156.855 E23.06131
G1 X74.754 Y156.596 E23.08235
G1 X74.616 Y155.808 E23.14621
G1 X74.578 Y155.574 E23.16514
G1 X74.443 Y154.697 E23.23597
G1 X74.414 Y154.495 E23.25226
G1 X74.313 Y153.744 E23.31274
G1 X74.21 Y152.878 E23.38236
G1 X74.133 Y152.153 E23.44056
G1 X74.047 Y151.296 E23.50931
G1 X73.949 Y150.119 E23.60359
G1 X73.886 Y149.189 E23.678
G1 X73.811 Y147.872 E23.78329
G1 X73.779 Y147.24 E23.83381
G1 X73.76 Y146.826 E23.86689
G1 X73.722 Y145.803 E23.94861
G1 X73.703 Y145.078 E24.0065
G1 X73.656 Y142.961 E24.17553
G1 X73.645 Y142.123 E24.24243
G1 X73.635 Y140.28 E24.38955
G1 X73.631 Y139.755 E24.43146
G1 X73.63 Y139.143 E24.48031
G1 X73.632 Y138.43 E24.53722
G1 X73.635 Y138.025 E24.56955
G1 X73.62 Y135.448 E24.77526
G1 X73.533 Y132.945 E24.97518
G1 X73.379 Y130.488 E25.1717
G1 X73.123 Y127.699 E25.39526
G1 X73.005 Y126.595 E25.48389
G1 X72.942 Y125.581 E25.56499
G1 X72.935 Y125.187 E25.59645
G1 X72.934 Y124.822 E25.62558
G1 X72.95 Y123.736 E25.71228
G1 X72.96 Y123.263 E25.75004
G1 X73.017 Y121.055 E25.92636
G1 X73.046 Y120.051 E26.00653
G1 X73.083 Y118.879 E26.10013
G1 X73.125 Y117.708 E26.19367
G1 X73.182 Y116.448 E26.29435
G1 X73.196 Y116.285 E26.30741
G1 X73.269 Y114.584 E26.44331
G1 X73.335 Y113.372 E26.54021
G1 X73.373 Y112.703 E26.59369
G1 X73.527 Y110.194 E26.79435
G1 X73.661 Y108.252 E26.94974
G1 X73.711 Y107.597 E27.00217
G1 X73.886 Y105.481 E27.17166
G1 X74.072 Y103.387 E27.33947
G1 X74.237 Y101.665 E27.47756
G1 X74.326 Y100.814 E27.54586
G1 X74.356 Y100.556 E27.56659
G1 X74.447 Y99.842 E27.62405
G1 X74.69 Y98.54 E27.72977
G1 X74.731 Y98.375 E27.74334
G1 X75.299 Y95.9 E27.94605
G1 X75.786 Y93.483 E28.14286
G1 X76.208 Y91.015 E28.34272
G1 X76.719 Y87.248 E28.64618
G1 X76.764 Y86.863 E28.67712
G1 X76.885 Y85.932 E28.75206
G1 X77.032 Y84.846 E28.83954
G1 X77.111 Y84.286 E28.88468
G1 X77.208 Y83.624 E28.93809
G1 X77.306 Y82.982 E28.98993
G1 X77.43 Y82.231 E29.05069
G1 X77.606 Y81.229 E29.1319
G1 X77.748 Y80.448 E29.19526
G1 X77.876 Y79.77 E29.25034
G1 X77.919 Y79.552 E29.26808
G1 X78.132 Y78.532 E29.35126
G1 X78.175 Y78.335 E29.36735
G1 X78.354 Y77.546 E29.43193
G1 X78.444 Y77.162 E29.46342
G1 X78.518 Y76.864 E29.48793
G1 X78.632 Y76.43 E29.52375
G1 X78.895 Y75.386 E29.60969
G1 X78.97 Y75.104 E29.63298
G1 X79.108 Y74.61 E29.67392
G1 X79.186 Y74.342 E29.6962
G1 X79.433 Y73.534 E29.76365
G1 X79.497 Y73.332 E29.78056
G1 X79.761 Y72.522 E29.84857
G1 X79.837 Y72.298 E29.86745
G1 X80.091 Y71.57 E29.929
G1 X80.16 Y71.377 E29.94536
G1 X80.381 Y70.778 E29.99632
G1 X80.532 Y70.39 E30.02956
G1 X80.794 Y69.752 E30.08461
G1 X80.896 Y69.512 E30.10543
G1 X81.284 Y68.625 E30.18271
G1 X81.432 Y68.301 E30.21114
G1 X81.716 Y67.703 E30.26399
G1 X81.892 Y67.348 E30.29562
G1 X82.256 Y66.645 E30.35881
G1 X82.467 Y66.255 E30.39421
G1 X82.903 Y65.487 E30.4647
G1 X83.083 Y65.181 E30.49304
G1 X83.253 Y64.902 E30.51912
G1 X83.545 Y64.448 E30.56221
G1 X83.976 Y63.81 E30.62367
G1 X84.109 Y63.618 E30.64231
G1 X84.399 Y63.207 E30.68247
G1 X84.6 Y62.93 E30.70978
G0 F6000 X85.08 Y63.29
G1 F1200 X85.237 Y63.081 E30.73065
G1 X85.57 Y62.66 E30.7735
G1 X86.058 Y62.073 E30.83443
G1 X86.283 Y61.811 E30.862
G1 X86.439 Y61.635 E30.88077
G1 X86.671 Y61.382 E30.90818
G1 X87.128 Y60.898 E30.96131
G1 X87.434 Y60.586 E30.9962
G1 X87.701 Y60.325 E31.026
G1 X87.956 Y60.084 E31.05401
G1 X88.799 Y59.311 E31.14531
G1 X89.055 Y59.083 E31.17267
G1 X89.98 Y58.285 E31.27019
G1 X92.699 Y55.779 E31.56536
G1 X93.409 Y55.173 E31.63987
G1 X94.169 Y54.629 E31.71447
G1 X94.972 Y54.153 E31.78899
G1 X95.985 Y53.675 E31.8784
G1 X96.494 Y53.466 E31.92232
G1 X96.775 Y53.355 E31.94644
G1 X97.364 Y53.132 E31.99671
G1 X97.548 Y53.064 E32.01237
G1 X97.926 Y52.928 E32.04444
G1 X99.686 Y52.249 E32.19502
G1 X100.054 Y52.114 E32.22631
G1 X100.829 Y51.876 E32.29103
G1 X101.118 Y51.799 E32.3149
G1 X101.483 Y51.709 E32.34491
G1 X102.076 Y51.573 E32.39348
G1 X102.929 Y51.387 E32.46317
G1 X103.333 Y51.303 E32.4961
G1 X104.388 Y51.069 E32.58237
G1 X105.365 Y50.861 E32.6621
G1 X106.282 Y50.672 E32.73684
G1 X107.2 Y50.488 E32.81158
G1 X107.913 Y50.35 E32.86955
G1 X108.607 Y50.221 E32.92589
G1 X109.169 Y50.12 E32.97147
G1 X109.769 Y50.015 E33.0201
G1 X110.694 Y49.864 E33.09491
G1 X111.167 Y49.791 E33.13311
G1 X111.924 Y49.68 E33.19419
G1 X112.508 Y49.6 E33.24124
G1 X113.527 Y49.474 E33.3232
G1 X113.783 Y49.446 E33.34376
G1 X115.106 Y49.314 E33.44989
G1 X115.369 Y49.291 E33.47096
G1 X116.484 Y49.207 E33.56022
G1 X116.804 Y49.187 E33.58581
G1 X118.07 Y49.129 E33.68698
G1 X118.433 Y49.119 E33.71596
G1 X119.711 Y49.103 E33.81799
